img/seen_by_observer.svg

<svg version="1.1" xmlns="http://www.w3.org/2000/svg" xmlns:xlink="http://www.w3.org/1999/xlink" width="519" height="252"><defs/><g><rect fill="black" stroke="none" x="0" y="0" width="519" height="252"/><g/><rect fill="rgb(0,255,0)" stroke="none" x="133.53511268220004" y="118.75757000250002" width="5" height="5"/><path fill="none" stroke="rgb(128,128,128)" paint-order="fill stroke markers" d=" M 205.68532468220002 84.02525900250002 L 206.21676568220002 155.23835300250002" stroke-miterlimit="10" stroke-width="4" stroke-opacity="0.7142857142857143" stroke-dasharray=""/><path fill="none" stroke="rgb(255,255,255)" paint-order="fill stroke markers" d=" M 203.95110087156473 119.64673096004206 L 207.95098949283528 119.61688104495796" stroke-miterlimit="10" stroke-dasharray=""/><path fill="rgb(255,0,0)" stroke="none" paint-order="stroke fill markers" d=" M 205.6480122883449 79.02539822591186 L 210.7224978526433 88.98780738523305 L 200.722776299467 89.06243217294332"/><path fill="rgb(255,0,0)" stroke="none" paint-order="stroke fill markers" d=" M 206.25407807605515 160.2382137790882 L 211.17931406493307 150.2011798320567 L 201.1795925117567 150.27580461976697"/><path fill="none" stroke="rgb(168,168,168)" paint-order="fill stroke markers" d=" M 375.74644468220004 71.20779300250003 L 415.07307868220005 167.3986140025" stroke-miterlimit="10" stroke-dasharray=""/><rect fill="rgb(255,255,128)" stroke="none" x="133.5351126822017" y="118.75757000250576" width="5" height="5" fill-opacity="NaN"/><path fill="none" stroke="rgb(0,0,255)" paint-order="fill stroke markers" d=" M 149.72801735539628 195.53992031190168 L 135.5351126822017 120.75757000250576" stroke-miterlimit="10" stroke-opacity="NaN" stroke-dasharray=""/><rect fill="rgb(255,255,128)" stroke="none" x="133.53511268221087" y="118.75757000255352" width="5" height="5" fill-opacity="NaN"/><path fill="none" stroke="rgb(0,0,255)" paint-order="fill stroke markers" d=" M 150.69632364265647 191.540926599677 L 135.53511268221087 120.75757000255352" stroke-miterlimit="10" stroke-opacity="NaN" stroke-dasharray=""/><rect fill="rgb(255,255,128)" stroke="none" x="133.5351126822125" y="118.75757000256155" width="5" height="5" fill-opacity="NaN"/><path fill="none" stroke="rgb(0,0,255)" paint-order="fill stroke markers" d=" M 151.82357410291092 188.95568025141523 L 135.5351126822125 120.75757000256155" stroke-miterlimit="10" stroke-opacity="NaN" stroke-dasharray=""/><rect fill="rgb(255,128,0)" stroke="none" x="133.53511268215894" y="118.75757000233665" width="5" height="5" fill-opacity="NaN"/><path fill="none" stroke="rgb(0,0,255)" paint-order="fill stroke markers" d=" M 153.003414783238 186.98392486734767 L 135.53511268215894 120.75757000233665" stroke-miterlimit="10" stroke-opacity="NaN" stroke-dasharray=""/><rect fill="rgb(255,255,128)" stroke="none" x="133.53511268221743" y="118.75757000255913" width="5" height="5" fill-opacity="NaN"/><path fill="none" stroke="rgb(0,0,255)" paint-order="fill stroke markers" d=" M 154.2121941571326 185.38344581231974 L 135.53511268221743 120.75757000255913" stroke-miterlimit="10" stroke-opacity="NaN" stroke-dasharray=""/><rect fill="rgb(255,255,128)" stroke="none" x="133.53511268220754" y="118.75757000252382" width="5" height="5" fill-opacity="NaN"/><path fill="none" stroke="rgb(0,0,255)" paint-order="fill stroke markers" d=" M 155.44337906553014 184.0419811596676 L 135.53511268220754 120.75757000252382" stroke-miterlimit="10" stroke-opacity="NaN" stroke-dasharray=""/><rect fill="rgb(255,255,128)" stroke="none" x="133.53511268221098" y="118.7575700025351" width="5" height="5" fill-opacity="NaN"/><path fill="none" stroke="rgb(0,0,255)" paint-order="fill stroke markers" d=" M 156.69646597932692 182.89720840779307 L 135.53511268221098 120.7575700025351" stroke-miterlimit="10" stroke-opacity="NaN" stroke-dasharray=""/><rect fill="rgb(255,255,128)" stroke="none" x="133.5351126822074" y="118.75757000252479" width="5" height="5" fill-opacity="NaN"/><path fill="none" stroke="rgb(0,0,255)" paint-order="fill stroke markers" d=" M 157.9738061713039 181.91104883246572 L 135.5351126822074 120.75757000252479" stroke-miterlimit="10" stroke-opacity="NaN" stroke-dasharray=""/><rect fill="rgb(255,128,0)" stroke="none" x="133.53511268219088" y="118.75757000248046" width="5" height="5" fill-opacity="NaN"/><path fill="none" stroke="rgb(0,0,255)" paint-order="fill stroke markers" d=" M 159.27951338992966 181.05909773489458 L 135.53511268219088 120.75757000248046" stroke-miterlimit="10" stroke-opacity="NaN" stroke-dasharray=""/><rect fill="rgb(255,128,0)" stroke="none" x="133.53511268216528" y="118.75757000241522" width="5" height="5" fill-opacity="NaN"/><path fill="none" stroke="rgb(0,0,255)" paint-order="fill stroke markers" d=" M 160.61912256406896 180.3256282915301 L 135.53511268216528 120.75757000241522" stroke-miterlimit="10" stroke-opacity="NaN" stroke-dasharray=""/><rect fill="rgb(255,255,128)" stroke="none" x="133.5351126822243" y="118.75757000255533" width="5" height="5" fill-opacity="NaN"/><path fill="none" stroke="rgb(0,0,255)" paint-order="fill stroke markers" d=" M 161.9996103846155 179.70107357685544 L 135.5351126822243 120.75757000255533" stroke-miterlimit="10" stroke-opacity="NaN" stroke-dasharray=""/><rect fill="rgb(255,128,0)" stroke="none" x="133.53511268214928" y="118.75757000238792" width="5" height="5" fill-opacity="NaN"/><path fill="none" stroke="rgb(0,0,255)" paint-order="fill stroke markers" d=" M 163.42966899988377 179.18081226969852 L 135.53511268214928 120.75757000238792" stroke-miterlimit="10" stroke-opacity="NaN" stroke-dasharray=""/><rect fill="rgb(255,255,128)" stroke="none" x="133.53511268224466" y="118.75757000258744" width="5" height="5" fill-opacity="NaN"/><path fill="none" stroke="rgb(0,0,255)" paint-order="fill stroke markers" d=" M 164.92024719597242 178.76480155859824 L 135.53511268224466 120.75757000258744" stroke-miterlimit="10" stroke-opacity="NaN" stroke-dasharray=""/><rect fill="rgb(255,128,0)" stroke="none" x="133.53511268217565" y="118.75757000245136" width="5" height="5" fill-opacity="NaN"/><path fill="none" stroke="rgb(0,0,255)" paint-order="fill stroke markers" d=" M 166.4854750833436 178.45795653665294 L 135.53511268217565 120.75757000245136" stroke-miterlimit="10" stroke-opacity="NaN" stroke-dasharray=""/><rect fill="rgb(255,255,128)" stroke="none" x="133.53511268222763" y="118.7575700025485" width="5" height="5" fill-opacity="NaN"/><path fill="none" stroke="rgb(0,0,255)" paint-order="fill stroke markers" d=" M 168.14424593296692 178.271469300066 L 135.53511268222763 120.7575700025485" stroke-miterlimit="10" stroke-opacity="NaN" stroke-dasharray=""/><rect fill="rgb(255,255,128)" stroke="none" x="133.53511268220586" y="118.75757000250974" width="5" height="5" fill-opacity="NaN"/><path fill="none" stroke="rgb(0,0,255)" paint-order="fill stroke markers" d=" M 169.92307055386166 178.2257217125292 L 135.53511268220586 120.75757000250974" stroke-miterlimit="10" stroke-opacity="NaN" stroke-dasharray=""/><rect fill="rgb(255,255,128)" stroke="none" x="133.53511268221237" y="118.75757000252081" width="5" height="5" fill-opacity="NaN"/><path fill="none" stroke="rgb(0,0,255)" paint-order="fill stroke markers" d=" M 171.86171290374728 178.3565517484046 L 135.53511268221237 120.75757000252081" stroke-miterlimit="10" stroke-opacity="NaN" stroke-dasharray=""/><rect fill="rgb(255,128,0)" stroke="none" x="133.53511268213273" y="118.75757000239494" width="5" height="5" fill-opacity="NaN"/><path fill="none" stroke="rgb(0,0,255)" paint-order="fill stroke markers" d=" M 174.02592714696357 178.73008520387694 L 135.53511268213273 120.75757000239494" stroke-miterlimit="10" stroke-opacity="NaN" stroke-dasharray=""/><rect fill="rgb(255,255,128)" stroke="none" x="133.53511268224764" y="118.7575700025677" width="5" height="5" fill-opacity="NaN"/><path fill="none" stroke="rgb(0,0,255)" paint-order="fill stroke markers" d=" M 176.54313816816412 179.48562984267514 L 135.53511268224764 120.7575700025677" stroke-miterlimit="10" stroke-opacity="NaN" stroke-dasharray=""/><rect fill="rgb(255,255,128)" stroke="none" x="133.5351126822131" y="118.75757000251829" width="5" height="5" fill-opacity="NaN"/><path fill="none" stroke="rgb(0,0,255)" paint-order="fill stroke markers" d=" M 179.75324891596665 181.02221073865408 L 135.5351126822131 120.75757000251829" stroke-miterlimit="10" stroke-opacity="NaN" stroke-dasharray=""/><rect fill="rgb(255,128,0)" stroke="none" x="461.7301618185758" y="48.613457750126116" width="5" height="5" fill-opacity="NaN"/><path fill="none" stroke="rgb(0,0,255)" paint-order="fill stroke markers" d=" M 182.32051028048113 182.83238900739403 L 463.7301618185758 50.613457750126116" stroke-miterlimit="10" stroke-opacity="NaN" stroke-dasharray=""/><rect fill="rgb(255,128,0)" stroke="none" x="461.7301618186741" y="48.61345775007896" width="5" height="5" fill-opacity="NaN"/><path fill="none" stroke="rgb(0,0,255)" paint-order="fill stroke markers" d=" M 186.35218674845655 187.37797629777359 L 463.7301618186741 50.61345775007896" stroke-miterlimit="10" stroke-opacity="NaN" stroke-dasharray=""/><rect fill="rgb(255,128,0)" stroke="none" x="461.73016181881104" y="48.61345775001184" width="5" height="5" fill-opacity="NaN"/><path fill="none" stroke="rgb(0,0,255)" paint-order="fill stroke markers" d=" M 188.7560110921135 192.65201898777835 L 463.73016181881104 50.61345775001184" stroke-miterlimit="10" stroke-opacity="NaN" stroke-dasharray=""/><rect fill="rgb(255,128,0)" stroke="none" x="461.73016181862994" y="48.613457750105106" width="5" height="5" fill-opacity="NaN"/><path fill="none" stroke="rgb(0,0,255)" paint-order="fill stroke markers" d=" M 189.5397892769871 198.77159098792754 L 463.73016181862994 50.613457750105106" stroke-miterlimit="10" stroke-opacity="NaN" stroke-dasharray=""/><rect fill="rgb(255,128,0)" stroke="none" x="461.730161818703" y="48.613457750065876" width="5" height="5" fill-opacity="NaN"/><path fill="none" stroke="rgb(0,0,255)" paint-order="fill stroke markers" d=" M 187.8162203870656 206.36147257132768 L 463.730161818703 50.613457750065876" stroke-miterlimit="10" stroke-opacity="NaN" stroke-dasharray=""/><rect fill="rgb(0,255,0)" stroke="none" x="133.53511268220004" y="118.75757000250002" width="5" height="5"/><path fill="none" stroke="rgb(128,128,128)" paint-order="fill stroke markers" d=" M 205.68532468220002 84.02525900250002 L 206.21676568220002 155.23835300250002" stroke-miterlimit="10" stroke-width="4" stroke-opacity="0.7142857142857143" stroke-dasharray=""/><path fill="none" stroke="rgb(255,255,255)" paint-order="fill stroke markers" d=" M 203.95110087156473 119.64673096004206 L 207.95098949283528 119.61688104495796" stroke-miterlimit="10" stroke-dasharray=""/><path fill="rgb(255,0,0)" stroke="none" paint-order="stroke fill markers" d=" M 205.6480122883449 79.02539822591186 L 210.7224978526433 88.98780738523305 L 200.722776299467 89.06243217294332"/><path fill="rgb(255,0,0)" stroke="none" paint-order="stroke fill markers" d=" M 206.25407807605515 160.2382137790882 L 211.17931406493307 150.2011798320567 L 201.1795925117567 150.27580461976697"/><path fill="none" stroke="rgb(168,168,168)" paint-order="fill stroke markers" d=" M 375.74644468220004 71.20779300250003 L 415.07307868220005 167.3986140025" stroke-miterlimit="10" stroke-dasharray=""/><path fill="blue" stroke="none" paint-order="stroke fill markers" d=" M 189.54733668219998 198.22219200250004 A 20 20 0 1 1 189.54732668220083 198.20219200583335"/><path fill="blue" stroke="none" paint-order="stroke fill markers" d=" M 189.54733668219998 198.22219200250004 A 20 20 0 1 1 189.54732668220083 198.20219200583335"/></g></svg>

<svg xmlns="http://www.w3.org/2000/svg" width="519" height="252"><path d="M0 0h519v252H0z"/><path fill="#0F0" d="M133.535 118.758h5v5h-5z"/><path fill="none" stroke="gray" paint-order="fill stroke markers" d="m205.685 84.025.532 71.213" stroke-miterlimit="10" stroke-width="4" stroke-opacity=".714"/><path fill="none" stroke="#FFF" paint-order="fill stroke markers" d="m203.951 119.647 4-.03" stroke-miterlimit="10"/><path fill="red" paint-order="stroke fill markers" d="m205.648 79.025 5.074 9.963-10 .074M206.254 160.238l4.925-10.037-10 .075"/><path fill="none" stroke="#A8A8A8" paint-order="fill stroke markers" d="m375.746 71.208 39.327 96.19" stroke-miterlimit="10"/><path fill="#FFFF80" fill-opacity="NaN" d="M133.535 118.758h5v5h-5z"/><path fill="none" stroke="#00F" paint-order="fill stroke markers" d="m149.728 195.54-14.193-74.782" stroke-miterlimit="10" stroke-opacity="NaN"/><path fill="#FFFF80" fill-opacity="NaN" d="M133.535 118.758h5v5h-5z"/><path fill="none" stroke="#00F" paint-order="fill stroke markers" d="m150.696 191.54-15.16-70.782" stroke-miterlimit="10" stroke-opacity="NaN"/><path fill="#FFFF80" fill-opacity="NaN" d="M133.535 118.758h5v5h-5z"/><path fill="none" stroke="#00F" paint-order="fill stroke markers" d="m151.824 188.956-16.289-68.198" stroke-miterlimit="10" stroke-opacity="NaN"/><path fill="#FF8000" fill-opacity="NaN" d="M133.535 118.758h5v5h-5z"/><path fill="none" stroke="#00F" paint-order="fill stroke markers" d="m153.003 186.984-17.468-66.226" stroke-miterlimit="10" stroke-opacity="NaN"/><path fill="#FFFF80" fill-opacity="NaN" d="M133.535 118.758h5v5h-5z"/><path fill="none" stroke="#00F" paint-order="fill stroke markers" d="m154.212 185.383-18.677-64.625" stroke-miterlimit="10" stroke-opacity="NaN"/><path fill="#FFFF80" fill-opacity="NaN" d="M133.535 118.758h5v5h-5z"/><path fill="none" stroke="#00F" paint-order="fill stroke markers" d="m155.443 184.042-19.908-63.284" stroke-miterlimit="10" stroke-opacity="NaN"/><path fill="#FFFF80" fill-opacity="NaN" d="M133.535 118.758h5v5h-5z"/><path fill="none" stroke="#00F" paint-order="fill stroke markers" d="m156.696 182.897-21.16-62.14" stroke-miterlimit="10" stroke-opacity="NaN"/><path fill="#FFFF80" fill-opacity="NaN" d="M133.535 118.758h5v5h-5z"/><path fill="none" stroke="#00F" paint-order="fill stroke markers" d="m157.974 181.911-22.439-61.153" stroke-miterlimit="10" stroke-opacity="NaN"/><path fill="#FF8000" fill-opacity="NaN" d="M133.535 118.758h5v5h-5z"/><path fill="none" stroke="#00F" paint-order="fill stroke markers" d="m159.28 181.06-23.745-60.302" stroke-miterlimit="10" stroke-opacity="NaN"/><path fill="#FF8000" fill-opacity="NaN" d="M133.535 118.758h5v5h-5z"/><path fill="none" stroke="#00F" paint-order="fill stroke markers" d="m160.62 180.326-25.085-59.568" stroke-miterlimit="10" stroke-opacity="NaN"/><path fill="#FFFF80" fill-opacity="NaN" d="M133.535 118.758h5v5h-5z"/><path fill="none" stroke="#00F" paint-order="fill stroke markers" d="m162 179.701-26.465-58.943" stroke-miterlimit="10" stroke-opacity="NaN"/><path fill="#FF8000" fill-opacity="NaN" d="M133.535 118.758h5v5h-5z"/><path fill="none" stroke="#00F" paint-order="fill stroke markers" d="m163.43 179.18-27.895-58.422" stroke-miterlimit="10" stroke-opacity="NaN"/><path fill="#FFFF80" fill-opacity="NaN" d="M133.535 118.758h5v5h-5z"/><path fill="none" stroke="#00F" paint-order="fill stroke markers" d="m164.92 178.765-29.385-58.007" stroke-miterlimit="10" stroke-opacity="NaN"/><path fill="#FF8000" fill-opacity="NaN" d="M133.535 118.758h5v5h-5z"/><path fill="none" stroke="#00F" paint-order="fill stroke markers" d="m166.485 178.458-30.95-57.7" stroke-miterlimit="10" stroke-opacity="NaN"/><path fill="#FFFF80" fill-opacity="NaN" d="M133.535 118.758h5v5h-5z"/><path fill="none" stroke="#00F" paint-order="fill stroke markers" d="m168.144 178.271-32.609-57.513" stroke-miterlimit="10" stroke-opacity="NaN"/><path fill="#FFFF80" fill-opacity="NaN" d="M133.535 118.758h5v5h-5z"/><path fill="none" stroke="#00F" paint-order="fill stroke markers" d="m169.923 178.226-34.388-57.468" stroke-miterlimit="10" stroke-opacity="NaN"/><path fill="#FFFF80" fill-opacity="NaN" d="M133.535 118.758h5v5h-5z"/><path fill="none" stroke="#00F" paint-order="fill stroke markers" d="m171.862 178.357-36.327-57.6" stroke-miterlimit="10" stroke-opacity="NaN"/><path fill="#FF8000" fill-opacity="NaN" d="M133.535 118.758h5v5h-5z"/><path fill="none" stroke="#00F" paint-order="fill stroke markers" d="m174.026 178.73-38.49-57.972" stroke-miterlimit="10" stroke-opacity="NaN"/><path fill="#FFFF80" fill-opacity="NaN" d="M133.535 118.758h5v5h-5z"/><path fill="none" stroke="#00F" paint-order="fill stroke markers" d="m176.543 179.486-41.008-58.728" stroke-miterlimit="10" stroke-opacity="NaN"/><path fill="#FFFF80" fill-opacity="NaN" d="M133.535 118.758h5v5h-5z"/><path fill="none" stroke="#00F" paint-order="fill stroke markers" d="m179.753 181.022-44.218-60.264" stroke-miterlimit="10" stroke-opacity="NaN"/><path fill="#FF8000" fill-opacity="NaN" d="M461.73 48.613h5v5h-5z"/><path fill="none" stroke="#00F" paint-order="fill stroke markers" d="M182.32 182.832 463.73 50.613" stroke-miterlimit="10" stroke-opacity="NaN"/><path fill="#FF8000" fill-opacity="NaN" d="M461.73 48.613h5v5h-5z"/><path fill="none" stroke="#00F" paint-order="fill stroke markers" d="M186.352 187.378 463.73 50.613" stroke-miterlimit="10" stroke-opacity="NaN"/><path fill="#FF8000" fill-opacity="NaN" d="M461.73 48.613h5v5h-5z"/><path fill="none" stroke="#00F" paint-order="fill stroke markers" d="M188.756 192.652 463.73 50.613" stroke-miterlimit="10" stroke-opacity="NaN"/><path fill="#FF8000" fill-opacity="NaN" d="M461.73 48.613h5v5h-5z"/><path fill="none" stroke="#00F" paint-order="fill stroke markers" d="M189.54 198.772 463.73 50.613" stroke-miterlimit="10" stroke-opacity="NaN"/><path fill="#FF8000" fill-opacity="NaN" d="M461.73 48.613h5v5h-5z"/><path fill="none" stroke="#00F" paint-order="fill stroke markers" d="M187.816 206.361 463.73 50.613" stroke-miterlimit="10" stroke-opacity="NaN"/><path fill="#0F0" d="M133.535 118.758h5v5h-5z"/><path fill="none" stroke="gray" paint-order="fill stroke markers" d="m205.685 84.025.532 71.213" stroke-miterlimit="10" stroke-width="4" stroke-opacity=".714"/><path fill="none" stroke="#FFF" paint-order="fill stroke markers" d="m203.951 119.647 4-.03" stroke-miterlimit="10"/><path fill="red" paint-order="stroke fill markers" d="m205.648 79.025 5.074 9.963-10 .074M206.254 160.238l4.925-10.037-10 .075"/><path fill="none" stroke="#A8A8A8" paint-order="fill stroke markers" d="m375.746 71.208 39.327 96.19" stroke-miterlimit="10"/><path fill="#00f" paint-order="stroke fill markers" d="M189.547 198.222a20 20 0 1 1 0-.02"/><path fill="#00f" paint-order="stroke fill markers" d="M189.547 198.222a20 20 0 1 1 0-.02"/></svg>
